dist/files/liveasy_logo.svg

<svg width="47" height="46" viewBox="0 0 47 46" fill="none" xmlns="http://www.w3.org/2000/svg">
<path d="M23.7693 24.5236L23.5876 24.4074L23.4059 24.5243L2.41712 38.0647L0 36.453V29.4839L23.5876 14.6602L47 29.4832V36.4673L44.9346 38.0563L23.7693 24.5236Z" fill="white"/>
<path d="M24.4262 39.8251L24.2613 39.7286L24.0938 39.8226L13.8223 45.5893L6.71777 40.8531L24.2548 29.5156L41.2598 40.8522L34.3279 45.5859L24.4262 39.8251Z" fill="white"/>
<path d="M47 15.9724V25.012L23.683 9.85573L23.5 9.7368L23.317 9.85573L0 25.012V15.9724L23.5 0L47 15.9724Z" fill="white"/>
</svg>

<svg width="47" height="46" fill="none" xmlns="http://www.w3.org/2000/svg"><path d="m23.77 24.524-.182-.117-.182.117-20.989 13.54L0 36.454v-6.97L23.588 14.66 47 29.483v6.984l-2.065 1.59-21.166-13.533Z" fill="#fff"/><path d="m24.426 39.825-.165-.096-.167.094-10.272 5.766-7.104-4.736 17.537-11.337L41.26 40.852l-6.932 4.734-9.902-5.76ZM47 15.972v9.04L23.683 9.856l-.183-.12-.183.12L0 25.012v-9.04L23.5 0 47 15.972Z" fill="#fff"/></svg>
